X: 1
T: String Quartet in E\b major opus 1 no 2 mvt 4
C: Franz Joseph Haydn
%%abc-version 2.0
%%abcx-abcm2ps-target-version 5.9.1 (29 Sep 2008)
%%abc-creator hum2abc beta
%%abcx-conversion-date 2021/02/14 14:38:13
%%abc-copyright Copyright (c) 1994, 2000 Center for Computer Assisted Research in the Humanities
%%abc-edited-by Frances Bennion
%%abcx-initial-encoding-date 1997/04/15
%%gracespace 0 6 6
%%humdrum-veritas 2814377750
%%humdrum-veritas-data 1210216314
%%linebreak <none>
%%barnumbers 0
L: 1/4
M: 3/4
N: Derived from op01n2-04.krn
Q: "Mneuetto II"
%%staves [1 2 3 4]
V: 1
V: 2
V: 3 clef=alto
V: 4 clef=bass
K: Eb
[V:1]E2 (3A/F/D/ [I:setbarnb2] |
[V:2]E2 (3A/F/D/ |
[V:3]E G B |
[V:4]E, G, B, |
[V:1]E B, A, |
[V:2]E z2 |
[V:3]E G, F, |
[V:4]E, z B,, |
[V:1]G,/B,/ E/G/ B/e/ |
[V:2]z2 B, |
[V:3]E, z G |
[V:4]E, z G, |
[V:1]B A G |
[V:2]C D E |
[V:3]F B, E |
[V:4]F, B,, E, |
[V:1]e3/ f//g// B/z/ |
[V:2]z E E |
[V:3]z G G |
[V:4]z G, G, |
[V:1]c3/ d//e// F/z/ |
[V:2]z E E |
[V:3]z A A |
[V:4]z A, A, |
[V:1]G3//A/8B/8 E D |
[V:2]z E D |
[V:3]z G, F, |
[V:4]z B, B,, |
[V:1]E2 z |
[V:2]E2 z |
[V:3]E,2 z |
[V:4]E, B,, E,, |
[V:1]b3/ c'//_d'// =e |
[V:2]z _d d |
[V:3]z B B |
[V:4]z B, B, |
[V:1]f/c/ c2 |
[V:2]c z/c/ B/A/ |
[V:3]A z/A/ G/F/ |
[V:4]A, z/A,/ G,/F,/ |
[V:1]_d/c/ g/=e/ c/B/ |
[V:2]G z C |
[V:3]=E z E |
[V:4]=E, z E, |
[V:1](3A/G/F/ F2 |
[V:2]F z2 |
[V:3]F A c |
[V:4]F, A, C |
[V:1]a3/ b//c'// e |
[V:2]z F A |
[V:3]F z2 |
[V:4]F, z2 |
[V:1]d3/ e//f// A |
[V:2]B B, D |
[V:3]z3 |
[V:4]z3 |
[V:1]G/B/ (3c/B/A/ (3G/F/E/ |
[V:2]E A, =A, |
[V:3]z3 |
[V:4]z3 |
[V:1]D2 z |
[V:2]B, B/A/ G/F/ |
[V:3]z B/A/ G/F/ |
[V:4]z B,/A,/ G,/F,/ |
[V:1]z3 |
[V:2]E G (3A/F/D/ |
[V:3]E z2 |
[V:4]E, z B, |
[V:1]e g (3a/f/d/ |
[V:2]E B, A, |
[V:3]B,3 |
[V:4]E, z B,, |
[V:1]e B A |
[V:2]G, G (3A/F/D/ |
[V:3]B,3 |
[V:4]E, z B,, |
[V:1]G g (3a/f/d/ |
[V:2]E B, A, |
[V:3]B,3 |
[V:4]E, z B, |
[V:1]e/g/ f/e/ d/c/ |
[V:2]G, z B, |
[V:3]B, z G |
[V:4]E, z G, |
[V:1]B A G |
[V:2]C D E |
[V:3]F B, E |
[V:4]F, B,, E, |
[V:1]e3/ f//g// B |
[V:2]z E E |
[V:3]z G G |
[V:4]z G, G, |
[V:1]c3/ d//e// F |
[V:2]z E E |
[V:3]z A A |
[V:4]z A, A, |
[V:1]G3//A/8B/8 E D |
[V:2]z E D |
[V:3]z G, F, |
[V:4]z B, B,, |
[V:1]E2 z |
[V:2]E2 z |
[V:3]E,2 z |
[V:4]E, B,, E,, |
[V:1]g2 a/g/ |
[V:2]e e e |
[V:3]c c c |
[V:4]C C C |
[V:1]g/^f/ f2 |
[V:2]d d d |
[V:3]=A A A |
[V:4]C C C |
[V:1]f d'/=b/ g/f/ |
[V:2]d d d |
[V:3]G G G |
[V:4]=B, B, B, |
[V:1]f/e/ e z |
[V:2]d/c/ c z |
[V:3]G G z |
[V:4]C C, z |
[V:1]z3 |
[V:2]d d d |
[V:3]F F F |
[V:4]z3 |
[V:1]a >=B c |
[V:2]=B2 G |
[V:3]D2 E |
[V:4]F,2 E, |
[V:1]z3 |
[V:2]d d d |
[V:3]F F F |
[V:4]z3 |
[V:1]a >=B c |
[V:2]=B2 G |
[V:3]D2 E |
[V:4]F,2 E, |
[V:1]d/>e/ c =B |
[V:2]z E D |
[V:3]z G G, |
[V:4]z G, G,, |
[V:1]c2 z |
[V:2]C2 z |
[V:3]C G, C |
[V:4]C, G,, C, |
[V:1]z2 G, |
[V:2]E/>G/ E G, |
[V:3]z z G, |
[V:4]z z G,, |
[V:1]A, A A |
[V:2]A, c c |
[V:3]A, z2 |
[V:4]A,, z2 |
[V:1]z2 =A, |
[V:2]F/>=A/ F =A, |
[V:3]z z =A, |
[V:4]z z =A,, |
[V:1]B, B B |
[V:2]B, d d |
[V:3]B, z2 |
[V:4]B,, z2 |
[V:1]z f f |
[V:2]z A A |
[V:3]d3 |
[V:4]B,, z2 |
[V:1]z e e |
[V:2]z G G |
[V:3]e3 |
[V:4]B,, z2 |
[V:1]z F F |
[V:2]z D D |
[V:3]A3 |
[V:4]B,, z2 |
[V:1]z G G |
[V:2]z E E |
[V:3]G3 |
[V:4]B,, z2 |
[V:1]F/>A/ E D |
[V:2]z E D |
[V:3]F/>A/ E D |
[V:4]A,, B,, B,, |
[V:1]E2 z |
[V:2]E2 z |
[V:3]E2 z |
[V:4]E, G,/F,/ E,/D,/ |
[V:1]g2 a/g/ |
[V:2]e e e |
[V:3]C c c |
[V:4]C, C C |
[V:1]g/^f/ f2 |
[V:2]d d d |
[V:3]=A A A |
[V:4]C C C |
[V:1]f d'/=b/ g/f/ |
[V:2]d d d |
[V:3]G G G |
[V:4]=B, B, B, |
[V:1]f/e/ e z |
[V:2]d/c/ c z |
[V:3]G G z |
[V:4]C C, z |
[V:1]z3 |
[V:2]d d d |
[V:3]F F F |
[V:4]z3 |
[V:1]a >=B c |
[V:2]=B2 G |
[V:3]D2 E |
[V:4]F,2 E, |
[V:1]z3 |
[V:2]d d d |
[V:3]F F F |
[V:4]z3 |
[V:1]a >=B c |
[V:2]=B2 G |
[V:3]D2 E |
[V:4]F,2 E, |
[V:1]d/>e/ c =B |
[V:2]z E D |
[V:3]z G G, |
[V:4]z G, G,, |
[V:1]c2 z |]
[V:2]C2 z |]
[V:3]C G, C, |]
[V:4]C, G,, C,, |]

